common/src/main/resources/icons/debugger/db_obsolete.svg

<svg xmlns="http://www.w3.org/2000/svg" width="12" height="12" viewBox="0 0 24 24"><path fill="#6078BB" d="M13 13h-2V7h2m-1 10.3a1.3 1.3 0 0 1-1.3-1.3 1.3 1.3 0 0 1 1.3-1.3 1.3 1.3 0 0 1 1.3 1.3 1.3 1.3 0 0 1-1.3 1.3M15.73 3H8.27L3 8.27v7.46L8.27 21h7.46L21 15.73V8.27z"/></svg>

<!--
  - The MIT License (MIT)
  -
  - Copyright (c) 2015-2022 Elior "Mallowigi" Boukhobza
  -
  - Permission is hereby granted, free of charge, to any person obtaining a copy
  - of this software and associated documentation files (the "Software"), to deal
  - in the Software without restriction, including without limitation the rights
  - to use, copy, modify, merge, publish, distribute, sublicense, and/or sell
  - copies of the Software, and to permit persons to whom the Software is
  - furnished to do so, subject to the following conditions:
  -
  - The above copyright notice and this permission notice shall be included in all
  - copies or substantial portions of the Software.
  -
  - THE SOFTWARE IS PROVIDED "AS IS", WITHOUT WARRANTY OF ANY KIND, EXPRESS OR
  - IMPLIED, INCLUDING BUT NOT LIMITED TO THE WARRANTIES OF MERCHANTABILITY,
  - FITNESS FOR A PARTICULAR PURPOSE AND NONINFRINGEMENT. IN NO EVENT SHALL THE
  - AUTHORS OR COPYRIGHT HOLDERS BE LIABLE FOR ANY CLAIM, DAMAGES OR OTHER
  - LIABILITY, WHETHER IN AN ACTION OF CONTRACT, TORT OR OTHERWISE, ARISING FROM,
  - OUT OF OR IN CONNECTION WITH THE SOFTWARE OR THE USE OR OTHER DEALINGS IN THE
  - SOFTWARE.
  -
  -
  -->


<svg xmlns="http://www.w3.org/2000/svg" version="1.1" width="12px" height="12px" viewBox="0 0 24 24">
  <path fill="#6078BB"
        d="M13,13H11V7H13M12,17.3A1.3,1.3 0 0,1 10.7,16A1.3,1.3 0 0,1 12,14.7A1.3,1.3 0 0,1 13.3,16A1.3,1.3 0 0,1 12,17.3M15.73,3H8.27L3,8.27V15.73L8.27,21H15.73L21,15.73V8.27L15.73,3Z" />
</svg>
